X: 51
T: Planxty Nancy Vernon
C: O'Carolan
B: O'Neill's 676
Z: 1997 by John Chambers <jc:trillian.mit.edu>
Q: "Spirited"
M: 6/8
L: 1/8
K: A
e |\
c2A (F>EF) | E3 (EFA) |1 B2B (BAF) | (ABc) (d2e) :|2 B2d c2B | BAA A2 ||
c |\
e2c A2c | d3 d2c | (d2e) f2e |  edc B2c | f2e edc | B3 c2B |
BAF F2E | EFA HB2e || c2A (F>EF) | E3 (EFA) | B2d c2B | BAA A2 |]

%%sep 1 1 500

